!!!OTL: ES SITZT NE FRAU IM RINGELEIN
!!!ARE: Europa, Mitteleuropa, Deutschland, Thueringen
!!!SCT: K2067
!!!YEM: Copyright 1995, estate of Helmut Schaffrath.
**kern
*ICvox
*Ivox
*M2/4
*k[f#]
*G:
{8d
=1
8g
8g
8b
8b
=2
8a
8a
8g}
{8g
=3
8b
8b
8dd
8dd
=4
8cc
8cc
8b}
{8b
=5
8dd
8dd
4ee
=6
8cc
8cc
8dd}
{8b
=7
8b
8b
4cc
=8
8a
8a
8b}
{8dd
=9
4a
8g
8dd
=10
4a
8g}
==
!!!AGN: Kinder - Lied, Reigen, Tanz - Spiel
!!!ONB: ESAC (Essen Associative Code) Database: KINDER
!!!AMT: simple duple
!!!AIN: vox
!!!EED: Helmut Schaffrath
!!!EEV: 1.0
*-
